X:1
T:Joy Bells Are Ringing
T:Joy Bells Are Ringing
T:Wilhelm Theodor Söderberg, 1881
T:Nils Frykman, 1881; trans. Gustav Johnson, 1946
T:Words © 1950, 1966 Covenant Publications, 5101 N. Francisco Ave, Chicago IL 60625 Courtesy of the Cyber Hymnal™
C:Wilhelm Theodor Söderberg, 1881
Z:Words © 1950, 1966 Covenant Publications, 5101 N. Francisco Ave, Chicago IL 60625
Z:Courtesy of the Cyber Hymnal™
%%score ( 1 2 ) ( 3 4 )
L:1/8
Q:1/4=110
M:4/4
K:Ab
V:1 treble 
V:2 treble 
V:3 bass 
V:4 bass 
V:1
 [Ec]2 [CA]>[CE] [DF]2 [CE]2 | [Ed]2 [DB]>[DF] [DG]2 [DF]2 | [CE]2 [CA][Ec] [Ee]3 [Ec] | [EB]6 z2 | %4
w: 1.~Joy bells are ring- ing,|Christ- mas is bring- ing|Tid- ings of Je- sus’|birth.|
w: 2.~Light is as- cend- ing,|Night- time is end- ing,|Sun- shine from God ap-|pears.|
w: 3.~O what a trea- sure|God in His plea- sure|Lov- ing- ly gives to-|day.|
w: 4.~Come to the man- ger,|Kin- dred and stran- ger,|Hail now the new- born|King!|
w: 5.~Ban- ish all sad- ness,|Fill me with glad- ness,|Je- sus, whom I a-|dore!|
 [Ec]2 [Fd][Ec] [=DB]2 [DF]2 | [DB]2 [Ec][DB] [CA]2 [CE]2 | E2 [EG][EB] [Ee]3 [DG] | [CA]3 z2 |] %8
w: Can- dles are gleam- ing,|Glad- ness is stream- ing|Out o- ver all the|earth.|
w: Hope of the ag- es,|Fore- told by sag- es,|Comes to dis- pel all|fears.|
w: Grace to the low- ly,|Peace, pure and ho- ly,|An- gels to men con-|vey.|
w: In a- do- ra- tion|With ju- bi- la- tion|Peo- ples and na- tions|sing!|
w: All else may per- ish,|Thee will I cher- ish|Now and for- ev- er-|more!|
V:2
 x8 | x8 | x8 | x8 | x8 | x8 | E2 x6 | x5 |] %8
V:3
 [A,,A,]2 [A,,A,]>[A,,A,] [A,,A,]2 [A,,A,]2 | [B,,G,]2 [E,G,]>[E,B,] [E,B,]2 [G,B,]2 | %2
 A,2 [E,A,][C,A,] [B,,G,]3 [A,,A,] | [E,G,]6 z2 | [A,,A,]2 [A,,A,][A,,A,] [B,,A,]2 [B,,A,]2 | %5
 [E,,E,G,]2 [E,G,][E,G,] [A,,A,]2 A,2 | [G,B,]2 [E,B,][D,G,] [C,A,]3 E, | [A,,E,]3 z2 |] %8
V:4
 x8 | x8 | A,2 x6 | x8 | x8 | x6 A,2 | x7 E, | x5 |] %8

